src/assets/weather/clear.svg

<svg xmlns="http://www.w3.org/2000/svg" xmlns:xlink="http://www.w3.org/1999/xlink" width="500" zoomAndPan="magnify" viewBox="0 0 375 374.999991" height="500" preserveAspectRatio="xMidYMid meet" version="1.0"><path fill="#fbbe4b" d="M 258.855469 184.992188 C 258.855469 225.386719 230.855469 257.488281 190.464844 257.488281 C 150.070312 257.488281 116.144531 227.894531 116.144531 187.5 C 116.144531 147.105469 146.789062 117.511719 187.183594 117.511719 C 230.808594 117.511719 258.855469 144.597656 258.855469 184.992188 Z M 193.542969 41.25 C 191.332031 37.832031 182.097656 37.488281 179.589844 41.367188 C 177.007812 45.355469 179.339844 100.300781 186.566406 100.300781 C 194.46875 100.296875 195.449219 44.199219 193.542969 41.25 Z M 119.609375 57.824219 C 115.984375 55.96875 107.816406 60.289062 107.582031 64.898438 C 107.339844 69.644531 136.832031 116.0625 143.09375 112.449219 C 149.9375 108.496094 122.734375 59.425781 119.609375 57.824219 Z M 63.867188 109.144531 C 59.800781 109.347656 54.886719 117.175781 56.988281 121.28125 C 59.152344 125.511719 107.902344 150.96875 111.515625 144.707031 C 115.464844 137.863281 67.375 108.96875 63.867188 109.144531 Z M 41.25 181.457031 C 37.832031 183.667969 37.488281 192.902344 41.367188 195.410156 C 45.355469 197.992188 100.300781 195.660156 100.300781 188.429688 C 100.296875 180.53125 44.199219 179.550781 41.25 181.457031 Z M 57.824219 255.390625 C 55.96875 259.015625 60.289062 267.183594 64.898438 267.417969 C 69.644531 267.660156 116.0625 238.167969 112.449219 231.90625 C 108.496094 225.0625 59.425781 252.265625 57.824219 255.390625 Z M 109.144531 311.132812 C 109.347656 315.199219 117.175781 320.113281 121.28125 318.011719 C 125.511719 315.847656 150.96875 267.097656 144.707031 263.484375 C 137.863281 259.535156 108.96875 307.625 109.144531 311.132812 Z M 181.457031 333.75 C 183.667969 337.167969 192.902344 337.511719 195.410156 333.632812 C 197.992188 329.644531 195.660156 274.699219 188.433594 274.699219 C 180.53125 274.703125 179.550781 330.800781 181.457031 333.75 Z M 255.390625 317.175781 C 259.015625 319.03125 267.183594 314.710938 267.417969 310.101562 C 267.660156 305.355469 238.167969 258.9375 231.90625 262.550781 C 225.0625 266.503906 252.265625 315.574219 255.390625 317.175781 Z M 311.132812 265.855469 C 315.199219 265.652344 320.113281 257.824219 318.011719 253.71875 C 315.847656 249.488281 267.097656 224.03125 263.484375 230.292969 C 259.535156 237.136719 307.625 266.03125 311.132812 265.855469 Z M 333.75 193.542969 C 337.167969 191.332031 337.511719 182.097656 333.632812 179.589844 C 329.644531 177.007812 274.699219 179.339844 274.699219 186.566406 C 274.703125 194.46875 330.800781 195.449219 333.75 193.542969 Z M 317.175781 119.609375 C 319.03125 115.984375 314.710938 107.816406 310.101562 107.582031 C 305.355469 107.339844 258.9375 136.832031 262.550781 143.09375 C 266.503906 149.9375 315.574219 122.734375 317.175781 119.609375 Z M 265.855469 63.867188 C 265.652344 59.800781 257.824219 54.886719 253.71875 56.988281 C 249.488281 59.152344 224.03125 107.902344 230.292969 111.515625 C 237.136719 115.464844 266.03125 67.375 265.855469 63.867188 Z M 265.855469 63.867188 " fill-opacity="1" fill-rule="nonzero"/></svg>

<svg xmlns="http://www.w3.org/2000/svg" width="500" viewBox="0 0 375 375" height="500" version="1.0"><path fill="#fbbe4b" d="M258.855 184.992c0 40.395-28 72.496-68.39 72.496-40.395 0-74.32-29.593-74.32-69.988 0-40.395 30.644-69.988 71.039-69.988 43.625 0 71.671 27.086 71.671 67.48ZM193.543 41.25c-2.211-3.418-11.445-3.762-13.953.117-2.582 3.988-.25 58.934 6.976 58.934 7.903-.004 8.883-56.102 6.977-59.051Zm-73.934 16.574c-3.625-1.855-11.793 2.465-12.027 7.074-.242 4.747 29.25 51.165 35.512 47.551 6.844-3.953-20.36-53.023-23.485-54.625Zm-55.742 51.32c-4.066.204-8.98 8.032-6.879 12.137 2.164 4.23 50.914 29.688 54.528 23.426 3.949-6.844-44.141-35.738-47.649-35.562ZM41.25 181.458c-3.418 2.211-3.762 11.445.117 13.953 3.988 2.582 58.934.25 58.934-6.98-.004-7.899-56.102-8.88-59.051-6.973Zm16.574 73.934c-1.855 3.625 2.465 11.793 7.074 12.027 4.747.242 51.165-29.25 47.551-35.512-3.953-6.844-53.023 20.36-54.625 23.485Zm51.32 55.742c.204 4.066 8.032 8.98 12.137 6.879 4.23-2.164 29.688-50.914 23.426-54.528-6.844-3.949-35.738 44.141-35.562 47.649Zm72.313 22.617c2.211 3.418 11.445 3.762 13.953-.117 2.582-3.988.25-58.934-6.976-58.934-7.903.004-8.883 56.102-6.977 59.051Zm73.934-16.574c3.625 1.855 11.793-2.465 12.027-7.074.242-4.747-29.25-51.164-35.512-47.551-6.844 3.953 20.36 53.023 23.485 54.625Zm55.742-51.32c4.066-.204 8.98-8.032 6.879-12.137-2.164-4.23-50.914-29.688-54.528-23.426-3.949 6.844 44.141 35.738 47.649 35.562Zm22.617-72.313c3.418-2.211 3.762-11.445-.117-13.953-3.988-2.582-58.934-.25-58.934 6.976.004 7.903 56.102 8.883 59.051 6.977Zm-16.574-73.934c1.855-3.625-2.465-11.793-7.074-12.027-4.747-.242-51.164 29.25-47.551 35.512 3.953 6.844 53.023-20.36 54.625-23.485Zm-51.32-55.742c-.204-4.066-8.032-8.98-12.137-6.879-4.23 2.164-29.688 50.914-23.426 54.528 6.844 3.949 35.738-44.141 35.562-47.649Zm0 0"/></svg>
